!!!ONB: MCCC : IFS0577_01 : Extracted Monophonic Melody
!!!COM: Schubert, Franz
!!!OPR: Piano Sonata in A minor
!!!OMV: 1
!!!SCT: D.537 (published as Op.posth.164)
!!!ODT: 1817///
**kern
*staff1
*clefG2
*k[b-]
*F:
*M6/8
32ee
32r
16r
=1
8.ee
16dd
8cc
8.cc
16b
8a
=2
4g#
8a
4b
8cc
=3
4dd
8ee
4.ff[
=4
16ff]
16bb
16aa-
16ddd
16bb
16fff
16ddd
16bb
16aa-
16ff
16bb
16aa-
=5
16ff
16dd
16aa-
16ff
16dd
16b
16ff
16dd
16b
16a-
8ee
=6
8.ee
16dd
8cc
8.cc
16b
8a
=7
4g#
8a
4b
8cc
=8
4dd
8ee
4.ff[
=9
16ff]
16bb
16aa-
16ddd
16bb
16fff
16ddd
16bb
16aa-
16ff
16ddd
16bb
=10
16aa-
16ff
16bb
16aa-
16ff
16dd
16aa-
16ff
16dd
16b
8gg
=11
8.gg
16ff
8ee
8ee
8ee
8ee
=12
4ff
8aa
4gg
8eee
=13
4fff
8aaa
4ggg
16cc
16dd
=14
4dd
16dd
16ee-
4ee-
16ee-
16ee
=15
4ee
16ee
16ff
4ff
8ff#
=16
8.gg
16ff
8ee-
8ee-
16dd
16cc
8b-
=17
8.gg
16ff
8ee-
8ee-
16dd
16cc
8b-
=18
8.aa-
16gg
8ff
8ff
16ee
16dd
8cc
=19
8.aa-
16gg
8ff
8ff
16ee
16dd
8cc
=20
8.aa
16gg
8ff
8.ff
16ee
8ee-
=21
8.aa
16gg
8ff
8.ff
16ee
8ee-
=22
8.fff
16eee-
8ccc#
8.ccc#
16ccc
8bb
=23
8.fff
16eee-
8ccc#
8.ccc#
16ccc
8bb
=24
8.ccc
16bb-
8aa
8.gg
16ff
8ee
=25
8.cc
16b-
8a
8.g
16f
8e
=26
8.c
16B-
8A
8.G
16F
8E
=27
2.r
=28
4.ff
4.aa
=29
4.gg
4.ccc
=30
4.ff
4.aa
=31
4.gg
4.ccc
=32
8ff
8ee
8ff
8cc
8a
8f
=33
16a-
16g
4g
16a-
16g
4g
=34
16b-
16a
4a
24b-
24cc
24b-
24a
24b-
24cc
8dd
=35
16b-
16a
4a
24b-
24cc
24b-
24a
24b-
24cc
16.dd
32ddd
=36
4.fff[
8fff]
8ddd
8bb-
=37
8ff
8dd
8b-
8g
8cc#
16.dd[
32dd]
=38
8.f
16e
8f
4a
8g
=39
16f
16ff
4ff
16a
16aa
4aa
=40
16g
16gg
4gg
16cc
16ccc
4ccc
=41
16f
16ff
4ff
16a
16aa
4aa
=42
16g
16gg
4gg
16cc
16ccc
4ccc
=43
8ff
8ee
8ff
8cc
8a
8f
=44
16a-
16f#
4f#
16a-
16f#
4f#
=45
16b-
16a
4a
16b-
16a
4a
=46
16b
16b-
4b-
16ee-
16cc#
4cc#
=47
16bb
16bb-
4bb-
16eee-
16ccc#
4ccc#[
=48
8ccc#]
8ccc#
8ccc#
8ccc#
8ccc#
8ccc#
=49
8fff
8fff
8fff
8fff
8fff
8fff
=50
4.fff[
8fff]
8ccc
8aa
=51
8ff
8cc
8a
8f
8d
16.B
32g
=52
8.f
16e
8f
4a
8g
=53
4.f
4.A
=54
4.c
4B-
8A
=55
4.G[
8G]
8B-
8c#
=56
4.c#
4.c
=57
4.F
4.A
=58
4.c
4B-
8A
=59
4.G[
8G]
8B-
8c#
=60
4.c#
4.B#
=61
4.c#
4.B#
=62
4.c#
4.c
=63
4.d
4.c
=64
4.c
4.B
=65
2.r
=66
*M1/8
32ee
32r
16r
=67
*M6/8
8.ee
16dd
8cc
8.cc
16b
8a
=68
4g#
8a
4b
8cc
=69
4dd
8ee
4.ff[
=70
16ff]
16bb
16aa-
16ddd
16bb
16fff
16ddd
16bb
16aa-
16ff
16bb
16aa-
=71
16ff
16dd
16aa-
16ff
16dd
16b
16ff
16dd
16b
16a-
8ee
=72
8.ee
16dd
8cc
8.cc
16b
8a
=73
4g#
8a
4b
8cc
=74
4dd
8ee
4.ff[
=75
16ff]
16bb
16aa-
16ddd
16bb
16fff
16ddd
16bb
16aa-
16ff
16ddd
16bb
=76
16aa-
16ff
16bb
16aa-
16ff
16dd
16aa-
16ff
16dd
16b
8gg
=77
8.gg
16ff
8ee
8ee
8ee
8ee
=78
4ff
8aa
4gg
8eee
=79
4fff
8aaa
4ggg
16cc
16dd
=80
4dd
16dd
16ee-
4ee-
16ee-
16ee
=81
4ee
16ee
16ff
4ff
8ff#
=82
8.gg
16ff
8ee-
8ee-
16dd
16cc
8b-
=83
8.gg
16ff
8ee-
8ee-
16dd
16cc
8b-
=84
8.aa-
16gg
8ff
8ff
16ee
16dd
8cc
=85
8.aa-
16gg
8ff
8ff
16ee
16dd
8cc
=86
8.aa
16gg
8ff
8.ff
16ee
8ee-
=87
8.aa
16gg
8ff
8.ff
16ee
8ee-
=88
8.fff
16eee-
8ccc#
8.ccc#
16ccc
8bb
=89
8.fff
16eee-
8ccc#
8.ccc#
16ccc
8bb
=90
8.ccc
16bb-
8aa
8.gg
16ff
8ee
=91
8.cc
16b-
8a
8.g
16f
8e
=92
8.c
16B-
8A
8.G
16F
8E
=93
2.r
=94
4.ff
4.aa
=95
4.gg
4.ccc
=96
4.ff
4.aa
=97
4.gg
4.ccc
=98
8ff
8ee
8ff
8cc
8a
8f
=99
16a-
16g
4g
16a-
16g
4g
=100
16b-
16a
4a
24b-
24cc
24b-
24a
24b-
24cc
8dd
=101
16b-
16a
4a
24b-
24cc
24b-
24a
24b-
24cc
16.dd
32ddd
=102
4.fff[
8fff]
8ddd
8bb-
=103
8ff
8dd
8b-
8g
8cc#
16.dd[
32dd]
=104
8.f
16e
8f
4a
8g
=105
16f
16ff
4ff
16a
16aa
4aa
=106
16g
16gg
4gg
16cc
16ccc
4ccc
=107
16f
16ff
4ff
16a
16aa
4aa
=108
16g
16gg
4gg
16cc
16ccc
4ccc
=109
8ff
8ee
8ff
8cc
8a
8f
=110
16a-
16f#
4f#
16a-
16f#
4f#
=111
16b-
16a
4a
16b-
16a
4a
=112
16b
16b-
4b-
16ee-
16cc#
4cc#
=113
16bb
16bb-
4bb-
16eee-
16ccc#
4ccc#[
=114
8ccc#]
8ccc#
8ccc#
8ccc#
8ccc#
8ccc#
=115
8fff
8fff
8fff
8fff
8fff
8fff
=116
4.fff[
8fff]
8ccc
8aa
=117
8ff
8cc
8a
8f
8d
16.B
32g
=118
8.f
16e
8f
4a
8g
=119
4.f
4.A
=120
4.c
4B-
8A
=121
4.G[
8G]
8B-
8c#
=122
4.c#
4.c
=123
4.F
4.A
=124
4.c
4B-
8A
=125
4.G[
8G]
8B-
8c#
=126
4.c#
4.B#
=127
4.c#
4.B#
=128
4.c#
4.c
=129
4.c
4.B-
=130
4.c
4.B-
=131
4.b-
4.a-
=132
4.b-
4.a-
=133
4.a-
4.f#
=134
4.a-
4.f#
=135
4.b-
4.a-
=136
4.b-
4.a-
=137
4.a-
4.f#
=138
4.a-
4.f#
=139
4f#
8e
4f#
8e
=140
4f#
8e
4f#
8e
=141
8.e
16e
16a-
16b
8.ee
16ee
16aa-
16bb
=142
8eee
8aaa-
8bbb
4.eeee
=143
4e
8d
4e
8d
=144
4e
8d
4e
8d
=145
8.d
16d
16f#
16a
8.dd
16dd
16ff#
16aa
=146
8ddd
8fff#
8aaa
4.dddd
=147
4d
8c
4d
8c
=148
4d
8c
4d
8c
=149
8.c
16c
16e
16g
8.cc
16cc
16ee
16gg
=150
8ccc
8eee
8ggg
4.cccc
=151
4.ccc
4.aa
=152
4.ff#
4.cc
=153
4.fff
4.ddd
=154
4.bb
4.ff
=155
4.eee
4.bb-
=156
4.gg
4.ee
=157
2.r
=158
4.r
4.e
=159
2.r
=160
4.r
4.E
=161
*M4/4
1r
=162
*M6/8
8e-
8e-
8e-
8e-
8e-
8e-
=163
4cc#
8cc[
8cc]
8b-
8a-
=164
4ee-
8cc#[
8cc#]
8cc
8b-
=165
4cc#
8cc[
8cc]
8b-
8a-
=166
4ee-
8cc#[
8cc#]
8cc
8b-
=167
4ff
8ee-[
8ee-]
8cc#
8cc
=168
8cc
8b-
8a
8a
8b-
8cc
=169
8ee-
8cc#
8cc
8ee-
8cc#
8b-
=170
4.a-
4cc
8b-
=171
4cc#
8cc[
8cc]
8b-
8a-
=172
16g
16b-
32cc#
16ee
32gg
16bb-
16ccc#
4eee
8eee-
=173
4cc#
8cc[
8cc]
8b-
8a-
=174
16g
16b-
32cc#
16ee
32gg
16bb-
16ccc#
4.eee[
=175
4.eee]
8ddd
8ccc#
8ccc
=176
4dd
8cc#[
8cc#]
8b
8a
=177
16g#
16b
32dd
16ff
32aa-
16bb
16ddd
4fff
8eee
=178
4dd
8cc#[
8cc#]
8b
8a
=179
16g#
16b
32dd
16ff
32aa-
16bb
16ddd
4fff
8eee
=180
4dd
8cc#[
8cc#]
8b
8a
=181
4cc
8ee-[
8ee-]
8dd
8cc
=182
4cc
8ee-[
8ee-]
8dd
8cc
=183
4gg
8gg[
8gg]
8ff
8ee-
=184
4aa-
8aa-[
8aa-]
8ee
8dd
=185
8aa-
8aa-
8aa-
8aa-
8aa-
8aa-
=186
4aa
24ff
24aa
24ddd
4.fff
=187
*M2/8
24ddd
24aa
24ff
32dd
32a
32f
32d
=188
*M6/8
4.A
4.aa
=189
4.r
4r
8aa
=190
8.aa
16gg
8ff
8.ff
16ee
8dd
=191
4cc#
8dd
4ee
8ff
=192
4gg
8aa
4.bb-[
=193
16bb-]
16eee
16ccc#
16ggg
16eee
16bbb-
16ggg
16eee
16ccc#
16bb-
16eee
16ccc#
=194
16bb-
16gg
16ccc#
16bb-
16gg
16ee
16bb-
16gg
16ee
16cc#
8aa
=195
8.aa
16gg
8ff
8.ff
16ee
8dd
=196
4cc#
8dd
4ee
8ff
=197
4gg
8aa
4.bb-[
=198
16bb-]
16eee
16ccc#
16ggg
16eee
16bbb-
16ggg
16eee
16ccc#
16bb-
16ggg
16eee
=199
16ccc#
16bb-
16eee
16ccc#
16bb-
16gg
16ccc#
16bb-
16gg
16ee
8ccc
=200
8.ccc
16bb-
8aa
8aa
8aa
8aa
=201
4bb-
8ddd
4ccc
8aaa
=202
4bbb-
8dddd
4cccc
16ff
16gg
=203
4gg
16gg
16aa-
4aa-
16aa-
16aa
=204
4aa
16aa
16bb-
4bb-
8bb
=205
8.ccc
16bb-
8aa-
8aa-
16gg
16ff
8ee-
=206
8.ccc
16bb-
8aa-
8aa-
16gg
16ff
8ee-
=207
8.ccc#
16ccc
8bb-
8bb-
16aa
16gg
8ff
=208
8.ccc#
16ccc
8bb-
8bb-
16aa
16gg
8ff
=209
8.ddd
16ccc
8bb-
8.bb-
16aa
8aa-
=210
8.ddd
16ccc
8bb-
8.bb-
16aa
8aa-
=211
8.aaa
16ggg
8fff
8.fff
16eee
8eee-
=212
8.aaa
16ggg
8fff
8.fff
16eee
8ddd#
=213
8.eee
16ddd
8ccc#
8.bb
16aa
8aa-
=214
8.ee
16dd
8cc#
8.b
16a
8a-
=215
8.e
16d
8c#
8.B
16A
8A-
=216
2.r
=217
4.aa
4.ccc#
=218
4.bb
4.eee
=219
4.aa
4.ccc#
=220
4.bb
4.eee
=221
8aa
8gg#
8aa
8ee
8cc#
8a
=222
16cc
16b
4b
16cc
16b
4b
=223
16dd
16cc#
4cc#
24dd
24ee
24dd
24cc#
24dd
24ee
8ff#
=224
16dd
16cc#
4cc#
24dd
24ee
24dd
24cc#
24dd
24ee
16.ff#
32fff#
=225
4.aaa[
8aaa]
8fff#
8ddd
=226
8aa
8ff#
8dd
8b
8ff
16.ff#[
32ff#]
=227
8.a
16g#
8a
4cc#
8b
=228
16a
16aa
4aa
16cc#
16ccc#
4ccc#
=229
16b
16bb
4bb
16ee
16eee
4eee
=230
16a
16aa
4aa
16cc#
16ccc#
4ccc#
=231
16b
16bb
4bb
16ee
16eee
4eee
=232
8aa
8gg#
8aa
8ee
8cc#
8a
=233
16cc
16b-
4b-
16cc
16b-
4b-
=234
16dd
16cc#
4cc#
16dd
16cc#
4cc#
=235
16ee-
16dd
4dd
16gg
16ff
4ff
=236
16eee-
16ddd
4ddd
16ggg
16fff
4fff[
=237
8fff]
8fff
8fff
8fff
8fff
8fff
=238
8aaa
8aaa
8aaa
8aaa
8aaa
8aaa
=239
4.aaa[
8aaa]
8eee
8ccc#
=240
8aa
8ee
8cc#
8a
8f#
8e-
=241
2.r
=242
4.a
4.c#
=243
4.e
4d
8c#
=244
4.B[
8B]
8d
8f
=245
4.f
4.e
=246
4.A
4.c#
=247
4.e
4d
8c#
=248
4.B[
8B]
8d
8f
=249
4.f
4.e
=250
4f#
8e
4f#
8e
=251
4f#
8e
4f#
8e
=252
8.e
16e
16a-
16b
8.ee
16ee
16aa-
16bb
=253
8eee
8aaa-
8bbb
4.eeee
=254
4e
8d
4e
8d
=255
4e
8d
4e
8d
=256
8.d
16d
16f#
16a
8.dd
16dd
16ff#
16aa
=257
8ddd
8fff#
8aaa
4.dddd
=258
4d
8c
4d
8c
=259
4d
8c
4d
8c
=260
8.c
16c
16e
16g
8.cc
16cc
16ee
16gg
=261
8ccc
8eee
8ggg
4.cccc
=262
4.ccc
4.aa
=263
4.ff#
4.cc
=264
4.fff
4.ddd
=265
4.bb
4.ff
=266
4.eee
4.bb-
=267
4.gg
4.ee
=268
2.r
=269
4.r
4.e
=270
2.r
=271
4.r
4.E
=272
*M4/4
1r
=273
*M6/8
8e-
8e-
8e-
8e-
8e-
8e-
=274
4cc#
8cc[
8cc]
8b-
8a-
=275
4ee-
8cc#[
8cc#]
8cc
8b-
=276
4cc#
8cc[
8cc]
8b-
8a-
=277
4ee-
8cc#[
8cc#]
8cc
8b-
=278
4ff
8ee-[
8ee-]
8cc#
8cc
=279
8cc
8b-
8a
8a
8b-
8cc
=280
8ee-
8cc#
8cc
8ee-
8cc#
8b-
=281
4.a-
4cc
8b-
=282
4cc#
8cc[
8cc]
8b-
8a-
=283
16g
16b-
32cc#
16ee
32gg
16bb-
16ccc#
4eee
8eee-
=284
4cc#
8cc[
8cc]
8b-
8a-
=285
16g
16b-
32cc#
16ee
32gg
16bb-
16ccc#
4.eee[
=286
4.eee]
8ddd
8ccc#
8ccc
=287
4dd
8cc#[
8cc#]
8b
8a
=288
16g#
16b
32dd
16ff
32aa-
16bb
16ddd
4fff
8eee
=289
4dd
8cc#[
8cc#]
8b
8a
=290
16g#
16b
32dd
16ff
32aa-
16bb
16ddd
4fff
8eee
=291
4dd
8cc#[
8cc#]
8b
8a
=292
4cc
8ee-[
8ee-]
8dd
8cc
=293
4cc
8ee-[
8ee-]
8dd
8cc
=294
4gg
8gg[
8gg]
8ff
8ee-
=295
4aa-
8aa-[
8aa-]
8ee
8dd
=296
8aa-
8aa-
8aa-
8aa-
8aa-
8aa-
=297
4aa
24ff
24aa
24ddd
4.fff
=298
*M2/8
24ddd
24aa
24ff
32dd
32a
32f
32d
=299
*M6/8
4.A
4.aa
=300
4.r
4r
8aa
=301
8.aa
16gg
8ff
8.ff
16ee
8dd
=302
4cc#
8dd
4ee
8ff
=303
4gg
8aa
4.bb-[
=304
16bb-]
16eee
16ccc#
16ggg
16eee
16bbb-
16ggg
16eee
16ccc#
16bb-
16eee
16ccc#
=305
16bb-
16gg
16ccc#
16bb-
16gg
16ee
16bb-
16gg
16ee
16cc#
8aa
=306
8.aa
16gg
8ff
8.ff
16ee
8dd
=307
4cc#
8dd
4ee
8ff
=308
4gg
8aa
4.bb-[
=309
16bb-]
16eee
16ccc#
16ggg
16eee
16bbb-
16ggg
16eee
16ccc#
16bb-
16ggg
16eee
=310
16ccc#
16bb-
16eee
16ccc#
16bb-
16gg
16ccc#
16bb-
16gg
16ee
8ccc
=311
8.ccc
16bb-
8aa
8aa
8aa
8aa
=312
4bb-
8ddd
4ccc
8aaa
=313
4bbb-
8dddd
4cccc
16ff
16gg
=314
4gg
16gg
16aa-
4aa-
16aa-
16aa
=315
4aa
16aa
16bb-
4bb-
8bb
=316
8.ccc
16bb-
8aa-
8aa-
16gg
16ff
8ee-
=317
8.ccc
16bb-
8aa-
8aa-
16gg
16ff
8ee-
=318
8.ccc#
16ccc
8bb-
8bb-
16aa
16gg
8ff
=319
8.ccc#
16ccc
8bb-
8bb-
16aa
16gg
8ff
=320
8.ddd
16ccc
8bb-
8.bb-
16aa
8aa-
=321
8.ddd
16ccc
8bb-
8.bb-
16aa
8aa-
=322
8.aaa
16ggg
8fff
8.fff
16eee
8eee-
=323
8.aaa
16ggg
8fff
8.fff
16eee
8ddd#
=324
8.eee
16ddd
8ccc#
8.bb
16aa
8aa-
=325
8.ee
16dd
8cc#
8.b
16a
8a-
=326
8.e
16d
8c#
8.B
16A
8A-
=327
2.r
=328
4.aa
4.ccc#
=329
4.bb
4.eee
=330
4.aa
4.ccc#
=331
4.bb
4.eee
=332
8aa
8gg#
8aa
8ee
8cc#
8a
=333
16cc
16b
4b
16cc
16b
4b
=334
16dd
16cc#
4cc#
24dd
24ee
24dd
24cc#
24dd
24ee
8ff#
=335
16dd
16cc#
4cc#
24dd
24ee
24dd
24cc#
24dd
24ee
16.ff#
32fff#
=336
4.aaa[
8aaa]
8fff#
8ddd
=337
8aa
8ff#
8dd
8b
8ff
16.ff#[
32ff#]
=338
8.a
16g#
8a
4cc#
8b
=339
16a
16aa
4aa
16cc#
16ccc#
4ccc#
=340
16b
16bb
4bb
16ee
16eee
4eee
=341
16a
16aa
4aa
16cc#
16ccc#
4ccc#
=342
16b
16bb
4bb
16ee
16eee
4eee
=343
8aa
8gg#
8aa
8ee
8cc#
8a
=344
16cc
16b-
4b-
16cc
16b-
4b-
=345
16dd
16cc#
4cc#
16dd
16cc#
4cc#
=346
16ee-
16dd
4dd
16gg
16ff
4ff
=347
16eee-
16ddd
4ddd
16ggg
16fff
4fff[
=348
8fff]
8fff
8fff
8fff
8fff
8fff
=349
8aaa
8aaa
8aaa
8aaa
8aaa
8aaa
=350
4.aaa[
8aaa]
8eee
8ccc#
=351
8aa
8ee
8cc#
8a
8f#
8e-
=352
2.r
=353
4.a
4.c#
=354
4.e
4d
8c#
=355
4.B[
8B]
8d
8f
=356
4.f
4.e
=357
4.A
4.c#
=358
4.e
4d
8c#
=359
4.B[
8B]
8d
8f
=360
4.f
4.e
=361
4.f
4.e
=362
4.e
4.d
=363
4.d
4.c
=364
4.c
4.B
=365
4.r
4r
8ee
=366
8.ee
16dd
8cc
8.cc
16b
8a
=367
4g#
8a
4.b
=368
4cc#
8dd
4.ee
=369
*M8/8
4ff
4gg
4aa
4r
=370
*M6/8
4.ee
4ff
8a-
=371
8a
8cc
8ee
8aa
8ccc
8eee-
=372
4.eee
4fff
8aa-
=373
4.aa
4.aaa
=374
2.a
==
*-
